resources/svg/face-id.svg

<svg xmlns="http://www.w3.org/2000/svg" viewBox="0 0 15 15" fill="currentColor"><path fill-rule="evenodd" clip-rule="evenodd" d="M2.5 1C1.67157 1 1 1.67157 1 2.5V5H0V2.5C0 1.11929 1.11929 0 2.5 0H5V1H2.5ZM12.5 1H10V0H12.5C13.8807 0 15 1.11929 15 2.5V5H14V2.5C14 1.67157 13.3284 1 12.5 1ZM5 6H4V5H5V6ZM11 6H10V5H11V6ZM4.9 8.7C6.2 10.4333 8.8 10.4333 10.1 8.7L10.9 9.3C9.2 11.5667 5.8 11.5667 4.1 9.3L4.9 8.7ZM0 12.5V10H1V12.5C1 13.3284 1.67157 14 2.5 14H5V15H2.5C1.11929 15 0 13.8807 0 12.5ZM15 10V12.5C15 13.8807 13.8807 15 12.5 15H10V14H12.5C13.3284 14 14 13.3284 14 12.5V10H15Z" fill="black"/></svg>

<svg xmlns="http://www.w3.org/2000/svg" viewBox="0 0 15 15" fill="currentColor"><path fill-rule="evenodd" clip-rule="evenodd" d="M2.5 1A1.5 1.5 0 001 2.5V5H0V2.5A2.5 2.5 0 012.5 0H5v1H2.5zm10 0H10V0h2.5A2.5 2.5 0 0115 2.5V5h-1V2.5A1.5 1.5 0 0012.5 1zM5 6H4V5h1v1zm6 0h-1V5h1v1zM4.9 8.7a3.25 3.25 0 005.2 0l.8.6c-1.7 2.267-5.1 2.267-6.8 0l.8-.6zM0 12.5V10h1v2.5A1.5 1.5 0 002.5 14H5v1H2.5A2.5 2.5 0 010 12.5zM15 10v2.5a2.5 2.5 0 01-2.5 2.5H10v-1h2.5a1.5 1.5 0 001.5-1.5V10h1z" fill="currentColor"/></svg>
